packages/kaspersky-hexa-ui-icons/src/iconsSVGs/48/ActivityMonitor.svg

<svg width="48" height="48" viewBox="0 0 48 48" fill="none" xmlns="http://www.w3.org/2000/svg">
<path fill-rule="evenodd" clip-rule="evenodd" d="M48 38V0H0V38H16V46H12V48H36V46H32V38H48ZM46 2V29H2V2H46ZM2 36V31H46V36H2ZM30 46H18V38H30V46ZM24 23C27.866 23 31 19.866 31 16C31 12.134 27.866 9 24 9C20.134 9 17 12.134 17 16C17 19.866 20.134 23 24 23ZM24 11C26.7614 11 29 13.2386 29 16C29 18.7614 26.7614 21 24 21C21.2386 21 19 18.7614 19 16C19 13.2386 21.2386 11 24 11ZM21.91 18.13C21.3338 17.5704 21.006 16.8032 21 16C21 14.3431 22.3431 13 24 13V15C23.5956 15.0017 23.232 15.2468 23.0787 15.6211C22.9255 15.9954 23.0128 16.4252 23.3 16.71C23.4863 16.8947 23.7377 16.9989 24 17C24.5523 17 25 16.5523 25 16H27C27 17.6569 25.6569 19 24 19C23.2095 18.9993 22.4512 18.6867 21.89 18.13H21.91ZM24 27H24.07C32.32 27 38.34 20.44 40.2 16.34L40.39 15.93L40.19 15.51C38.28 11.44 32.23 5 24 5C15.7 5 9.68 11.56 7.82 15.66L7.63 16.07L7.83 16.49C9.72 20.56 15.77 27 24 27ZM24 7C31.22 7 36.45 12.76 38.13 15.94C36.5 19.14 31.3 25 24 25C16.78 25 11.55 19.24 9.87 16.06C11.5 12.86 16.7 7 24 7Z"  fill="currentColor"/>
</svg>

<svg xmlns="http://www.w3.org/2000/svg" width="48" height="48" fill="none" viewBox="0 0 48 48"><path fill="currentColor" fill-rule="evenodd" d="M48 38V0H0v38h16v8h-4v2h24v-2h-4v-8zM46 2v27H2V2zM2 36v-5h44v5zm28 10H18v-8h12zm-6-23c3.866 0 7-3.134 7-7s-3.134-7-7-7-7 3.134-7 7 3.134 7 7 7m0-12c2.7614 0 5 2.2386 5 5s-2.2386 5-5 5-5-2.2386-5-5 2.2386-5 5-5m-2.09 7.13A3 3 0 0 1 21 16c0-1.6569 1.3431-3 3-3v2a1.0001 1.0001 0 0 0-.7 1.71c.1863.1847.4377.2889.7.29.5523 0 1-.4477 1-1h2c0 1.6569-1.3431 3-3 3a3 3 0 0 1-2.11-.87zM24 27h.07c8.25 0 14.27-6.56 16.13-10.66l.19-.41-.2-.42C38.28 11.44 32.23 5 24 5 15.7 5 9.68 11.56 7.82 15.66l-.19.41.2.42C9.72 20.56 15.77 27 24 27m0-20c7.22 0 12.45 5.76 14.13 8.94C36.5 19.14 31.3 25 24 25c-7.22 0-12.45-5.76-14.13-8.94C11.5 12.86 16.7 7 24 7" clip-rule="evenodd"/></svg>
